svgs/solid/clouds-moon.svg

<svg xmlns="http://www.w3.org/2000/svg" viewBox="0 0 640 512"><!--! Font Awesome Pro 6.0.0-alpha3 by @fontawesome - https://fontawesome.com License - https://fontawesome.com/license (Commercial License) --><path d="M448 320h-1.625c-7.375-36.5-39.68-63.99-78.43-63.99c-24.62 0-46.2 11.24-60.95 28.74C288.4 248.9 251.3 224 208 224c-58.25 0-105.6 44.75-110.9 101.6C59.25 338.5 32 373.9 32 416c0 53 43 96 96 96h320c53 0 96-43 96-96S501 320 448 320zM630.1 248.7C552.7 263.5 481 204 481 125.6c0-45.12 24.25-86.62 63.88-109c6.125-3.375 4.625-12.62-2.375-13.87C532.9 .875 523 0 513.1 0c-88.88 0-161.1 71.62-161.1 160c0 .75 .25 1.25 .25 2c16.25 16.75 27 38.75 30.25 63.12c38.5 5.125 71.75 29.88 87.63 64.75c23.12 4 44 14.37 61.13 29.12c42.5-4.75 80.63-25.1 107-58.25C642.8 255.3 637.9 247.3 630.1 248.7zM68.25 303.3C83.25 238.6 140.3 192 208 192c40.75 0 78.63 17.25 105.4 46.5C324.9 232 337.5 227.8 350.5 225.6C343.8 188.2 311.3 160 272 160H254.4C247 123.5 214.8 96 176 96S105 123.5 97.63 160H80C35.75 160 0 195.8 0 240c0 33.88 21.25 62.71 51 74.34C56.5 310.2 62.25 306.4 68.25 303.3z"/></svg>

<svg xmlns="http://www.w3.org/2000/svg" viewBox="0 0 640 512"><path d="M448 320h-1.6c-7.4-36.5-39.7-64-78.4-64-24.6 0-46.3 11.3-61 28.8-18.6-35.9-55.8-60.8-99-60.8-58.3 0-105.6 44.7-110.9 101.6C59.3 338.5 32 373.9 32 416c0 53 43 96 96 96h320c53 0 96-43 96-96s-43-96-96-96zm183-71.3c-78.2 14.8-150-44.7-150-123.1 0-45.1 24.3-86.6 63.9-109 6.1-3.4 4.6-12.6-2.4-13.9C532.9.9 523 0 513.1 0 424.2 0 352 71.6 352 160c0 .7.2 1.3.2 2 16.3 16.8 27 38.8 30.3 63.1 38.5 5.1 71.7 29.9 87.6 64.8 23.1 4 44 14.4 61.1 29.1 42.5-4.7 80.7-26 107.1-58.2 4.4-5.5-.4-13.4-7.3-12.1zM68.3 303.2C83.2 238.6 140.2 192 208 192c40.7 0 78.6 17.2 105.4 46.5 11.5-6.5 24.1-10.8 37.1-12.9-6.8-37.3-39.3-65.6-78.5-65.6h-17.6c-7.4-36.5-39.7-64-78.4-64s-71 27.5-78.4 64H80c-44.2 0-80 35.8-80 80 0 33.9 21.2 62.8 51 74.4 5.5-4.1 11.2-8 17.3-11.2z"/></svg>
